public/pieces/anarcandy/bB.svg

<svg fill="none" height="512" viewBox="0 0 512 512" width="512" xmlns="http://www.w3.org/2000/svg"><path d="m258.283 85.0915c-2.908-11.7267-4.927-27.2289-2.371-44.2918.398-2.6588-1.333-5.2183-3.98-5.6895l-11.435-2.0352c-2.572-.458-5.05 1.2278-5.456 3.8091-3.049 19.3464-.845 36.8224 2.714 50.5365-30.692 8.8454-41.694 41.2244-53.642 76.3864-7.473 21.992-15.316 45.072-28.578 64.163l.011.003c-30.882 44.45-51.539 82.66-51.546 122.498 0 88.495 62.712 138.894 150.863 139.558v.025c.296 0 .579-.011.872-.014.119.001.237.004.354.006.172.004.343.008.517.008l-.003-.028c88.148-.66 150.863-51.062 150.863-139.559 0-39.835-20.657-78.046-51.539-122.497-13.265-19.091-21.109-42.174-28.582-64.168-13.762-40.5-26.27-77.3097-69.062-78.7105z" fill="#00173c"/><path d="m274.501 110.934c1.836-1.912 1.774-4.951-.139-6.787-1.912-1.836-4.951-1.774-6.786.139-3.651 3.803-9.203 6.113-15.165 7.319-5.904 1.194-11.626 1.185-14.945.832-2.636-.281-5 1.629-5.28 4.265-.281 2.636 1.629 5 4.265 5.281 4.201.447 10.911.437 17.863-.969 6.894-1.394 14.622-4.283 20.187-10.08z" fill="#ff9cae"/><path d="m355.057 394.864c-4.976 8.415-11.175 15.824-18.436 22.16v.005c-1.237 1.079-2.505 2.127-3.803 3.143-2.682 2.101-5.773-2.002-3.733-4.729 37.566-50.212 11.912-127.205-.682-164.999-.593-1.781-1.158-3.475-1.685-5.075-.23-.984 1.222-1.58 1.774-.735.699 1.071 1.389 2.098 1.997 2.972 23.146 33.262 38.571 61.963 38.571 91.801 0 21.613-4.991 40.201-14.003 55.457z" fill="#ff9cae"/><path clip-rule="evenodd" d="m229.504 279.392-9.442-34.047c-2.518-.838-3.497 8.032-3.672 12.571.35 2.27.734 6.81-.525 6.81s-1.224 5.587-1.049 8.38c-2.518 2.514-5.245 7.333-6.295 9.428-3.776.419-12.764 3.667-16.786 5.238 0 1.027-1.119 1.83-2.334 2.702-.645.462-1.316.944-1.862 1.489l-5.246 5.238c-1.635-1.307-2.862 1.867-3.809 4.315l-.106.273c-.524 1.351-.96 2.406-1.33 2.221-.84-.419-6.295 9.254-8.918 14.142.42.838-3.672 13.619-5.77 19.904-4.721 1.746-14.268 5.238-14.688 5.238-.15 0-.691.13-1.409.302-1.782.428-4.662 1.119-5.41.746-1.049-.524-1.574 2.619-1.574 4.714 0 1.414 6.212 1.635 10.573 1.79 2.102.075 3.774.135 4.115.305.839.419 1.749-1.222 2.098-2.095.525.698 1.679 1.99 2.099 1.571.419-.419 4.021-.174 5.77 0 0 1.397.314 4.295 1.573 4.714-.349.35-.839 1.886 0 5.238 1.05 4.191 3.148 7.857 3.148 8.381 0 .419 3.497 4.365 5.245 6.286l1.05.523v1.048l5.048 4.39c.941.895 1.443 1.372 1.246 1.372-.839 0-.349 4.888 0 7.333-.839 0-1.399 3.142-1.573 4.714-2.099 2.514-.875 6.984 0 8.904 3.357.838 4.546-.698 4.721-1.571.524-1.048 1.573-3.457 1.573-4.714s1.049-2.968 1.574-3.667c.35-1.92 1.259-5.657 2.098-5.238 0-.873.21-2.514 1.049-2.095.7.524 2.308 1.572 3.148 1.572.839 0 3.497 2.444 4.721 3.666 1.049.524 3.672 1.467 5.77 1.048 1.399.523 4.406 1.571 5.246 1.571.839 0 1.748.698 2.098 1.048 2.273.174 7.029.523 7.868.523 1.049 0 7.869 1.572 9.442 0 1.574-1.571 6.82 1.048 6.82-.523 5.036-.838 13.289-5.588 16.786-7.857 1.399-.175 3.881-.315 2.623.524-1.259.838 1.923 2.444 3.671 3.142-.419 2.933 3.323 8.556 5.246 11 2.973 1.92 8.288 4.295 5.77-1.571-2.518-5.867-3.497-16.762-3.672-21.476-1.678 0 .35-4.539 1.574-6.809 2.098-1.222 6.085-4.191 5.246-6.286-.84-2.095.699-3.666 1.573-4.19-.349-1.571-.839-4.505 0-3.667.84.838 1.749-3.492 2.099-5.761-1.679-.838-.35-4.889.524-6.81 2.098.838 5.77-1.047 7.344-2.095.42-2.095 10.316-4.015 15.212-4.714l1.049-4.714-23.08-1.571c0-2.934-1.399-5.762-2.099-6.81 3.358-2.514-.349-9.777-2.622-13.094.839-3.353-7.344-11.873-11.541-15.714-2.098-3.352-5.77-6.984-7.344-8.381-2.622-.174-8.707-1.466-12.065-5.238-3.357-3.771-9.791-4.015-12.589-3.666zm-2.098 34.57c-1.679-.419-5.596-13.444-7.344-19.904 0 .216-.884 2.3-1.932 4.77l-.001.002c-.983 2.318-2.111 4.977-2.788 6.751 1.15 1.914-.221 6.344-1.043 9-.303.979-.531 1.718-.531 2 0 .272-.635 1.565-1.502 3.331-2.478 5.046-6.852 13.954-3.744 13.954 3.358 0 10.142 1.397 13.115 2.095 5.455-.419 11.715-2.619 14.163-3.666-2.099-5.937-6.715-17.914-8.393-18.333zm32.523 30.904c-2.099 1.257-5.071.873-6.295.523 1.259 2.096.524 5.762 0 7.334 1.678 2.095 1.748 5.412 1.573 6.809 1.05.524 3.253 1.781 3.672 2.619.42.838 1.224-.699 1.574-1.572-.42-.838-.175-2.793 0-3.666 2.098-2.514 3.322-9.079 3.672-12.047-.525-.524-2.098-1.257-4.196 0zm-68.718-36.142c1.679-2.095 10.491-7.508 14.688-9.952.419 2.933-1.924 8.206-3.148 10.476-.349 2.095-1.364 6.39-2.623 6.809-1.258.419-1.223 4.365-1.049 6.286-2.518 3.352-3.147 9.079-3.147 11.523-.42.419-5.42-.524-7.868-1.048-1.05.524-11.541 3.143-9.967.524s2.098-4.714 1.574-4.714c-.42 0 1.224-3.492 2.098-5.238-.839-.838.699-2.444 1.574-3.143-1.259-2.095 2.273-5.761 4.196-7.333.525-.523 1.993-2.095 3.672-4.19zm-13.114 40.332c2.098-.175 6.504-.629 7.344-1.048 1.049.175 3.567.419 5.245 0-1.398 1.921-4.091 6.076-3.672 7.333-1.224 2.096-3.357 6.6-2.098 7.857-.51 1.189-1.318 3.633-.59 4.152-1.766-1.063-5.07-3.214-4.655-3.628.419-.419-.525-4.365-1.05-6.285-.174-1.397-.419-4.295 0-4.714-.524-1.048-1.363-3.248-.524-3.667zm57.702-51.332c4.021 2.619 12.17 7.857 12.589 7.857.525 0 11.541 9.952 14.163 18.333 1.049.524 3.148 2.933 3.148 8.381-.375 0-.885.039-1.436.082-1.247.096-2.703.208-3.285-.082-.84-.419-8.743.523-12.59 1.047-1.049-3.666-3.882-11.838-6.819-15.19.35-.524.524-2.409-1.574-5.761-2.623-4.191-6.819-13.095-4.196-14.667zm-30.425 48.713c2.798-.175 8.603-.21 9.442 1.048 1.399-.699 4.721-1.677 6.82 0 2.098 1.676 12.414 0 17.31-1.048.35 2.095 1.259 6.181 2.098 5.762-.524.524-.419 3.666 4.197 12.047.175 2.619.944 7.857 2.623 7.857 1.678 0 .349 2.095-.525 3.143-1.049 1.222-3.987 3.876-7.344 4.714-4.196 1.047-9.966 2.619-12.065 3.666-1.678.838-9.442-.349-13.114-1.047l-.524 1.047c-2.098-1.746-6.82-4.923-8.918-3.666-1.923-1.746-5.98-4.924-6.819-3.667-1.049 1.572-3.147-4.714-2.098-4.19.839.419 1.398-6.809 1.573-10.476 2.098-3.841 6.295-11.628 6.295-12.047 0-.082-.013-.202-.028-.348-.085-.792-.251-2.353 1.077-2.795z" fill="#ff385c" fill-rule="evenodd"/></svg>

<svg width="512" height="512" viewBox="0 0 512 512" fill="none" xmlns="http://www.w3.org/2000/svg">
<path d="M258.283 85.0915C255.375 73.3648 253.356 57.8626 255.912 40.7997C256.31 38.1409 254.579 35.5814 251.932 35.1102L240.497 33.075C237.925 32.617 235.447 34.3028 235.041 36.8841C231.992 56.2305 234.196 73.7065 237.755 87.4206C207.063 96.266 196.061 128.645 184.113 163.807C176.64 185.799 168.797 208.879 155.535 227.97L155.546 227.973C124.664 272.423 104.007 310.633 104 350.471C104 438.966 166.712 489.365 254.863 490.029V490.054C255.159 490.054 255.442 490.043 255.735 490.04C255.854 490.041 255.972 490.044 256.089 490.046C256.261 490.05 256.432 490.054 256.606 490.054L256.603 490.026C344.751 489.366 407.466 438.964 407.466 350.467C407.466 310.632 386.809 272.421 355.927 227.97C342.662 208.879 334.818 185.796 327.345 163.802C313.583 123.302 301.075 86.4923 258.283 85.0915Z" fill="#00173C"/>
<path d="M274.501 110.934C276.337 109.022 276.275 105.983 274.362 104.147C272.45 102.311 269.411 102.373 267.576 104.286C263.925 108.089 258.373 110.399 252.411 111.605C246.507 112.799 240.785 112.79 237.466 112.437C234.83 112.156 232.466 114.066 232.186 116.702C231.905 119.338 233.815 121.702 236.451 121.983C240.652 122.43 247.362 122.42 254.314 121.014C261.208 119.62 268.936 116.731 274.501 110.934Z" fill="#FF9CAE"/>
<path d="M355.057 394.864C350.081 403.279 343.882 410.688 336.621 417.024L336.621 417.029C335.384 418.108 334.116 419.156 332.818 420.172C330.136 422.273 327.045 418.17 329.085 415.443C366.651 365.231 340.997 288.238 328.403 250.444C327.81 248.663 327.245 246.969 326.718 245.369C326.488 244.385 327.94 243.789 328.492 244.634C329.191 245.705 329.881 246.732 330.489 247.606C353.635 280.868 369.06 309.569 369.06 339.407C369.06 361.02 364.069 379.608 355.057 394.864Z" fill="#FF9CAE"/>
<path fill-rule="evenodd" clip-rule="evenodd" d="M229.504 279.392L220.062 245.345C217.544 244.507 216.565 253.377 216.39 257.916C216.74 260.186 217.124 264.726 215.865 264.726C214.606 264.726 214.641 270.313 214.816 273.106C212.298 275.62 209.571 280.439 208.521 282.534C204.745 282.953 195.757 286.201 191.735 287.772C191.735 288.799 190.616 289.602 189.401 290.474C188.756 290.936 188.085 291.418 187.539 291.963L182.293 297.201C180.658 295.894 179.431 299.068 178.484 301.516L178.378 301.789C177.854 303.14 177.418 304.195 177.048 304.01C176.208 303.591 170.753 313.264 168.13 318.152C168.55 318.99 164.458 331.771 162.36 338.056C157.639 339.802 148.092 343.294 147.672 343.294C147.522 343.294 146.981 343.424 146.263 343.596C144.481 344.024 141.601 344.715 140.853 344.342C139.804 343.818 139.279 346.961 139.279 349.056C139.279 350.47 145.491 350.691 149.852 350.846C151.954 350.921 153.626 350.981 153.967 351.151C154.806 351.57 155.716 349.929 156.065 349.056C156.59 349.754 157.744 351.046 158.164 350.627C158.583 350.208 162.185 350.453 163.934 350.627C163.934 352.024 164.248 354.922 165.507 355.341C165.158 355.691 164.668 357.227 165.507 360.579C166.557 364.77 168.655 368.436 168.655 368.96C168.655 369.379 172.152 373.325 173.9 375.246L174.95 375.769V376.817L179.998 381.207C180.939 382.102 181.441 382.579 181.244 382.579C180.405 382.579 180.895 387.467 181.244 389.912C180.405 389.912 179.845 393.054 179.671 394.626C177.572 397.14 178.796 401.61 179.671 403.53C183.028 404.368 184.217 402.832 184.392 401.959C184.916 400.911 185.965 398.502 185.965 397.245C185.965 395.988 187.014 394.277 187.539 393.578C187.889 391.658 188.798 387.921 189.637 388.34C189.637 387.467 189.847 385.826 190.686 386.245C191.386 386.769 192.994 387.817 193.834 387.817C194.673 387.817 197.331 390.261 198.555 391.483C199.604 392.007 202.227 392.95 204.325 392.531C205.724 393.054 208.731 394.102 209.571 394.102C210.41 394.102 211.319 394.8 211.669 395.15C213.942 395.324 218.698 395.673 219.537 395.673C220.586 395.673 227.406 397.245 228.979 395.673C230.553 394.102 235.799 396.721 235.799 395.15C240.835 394.312 249.088 389.562 252.585 387.293C253.984 387.118 256.466 386.978 255.208 387.817C253.949 388.655 257.131 390.261 258.879 390.959C258.46 393.892 262.202 399.515 264.125 401.959C267.098 403.879 272.413 406.254 269.895 400.388C267.377 394.521 266.398 383.626 266.223 378.912C264.545 378.912 266.573 374.373 267.797 372.103C269.895 370.881 273.882 367.912 273.043 365.817C272.203 363.722 273.742 362.151 274.616 361.627C274.267 360.056 273.777 357.122 274.616 357.96C275.456 358.798 276.365 354.468 276.715 352.199C275.036 351.361 276.365 347.31 277.239 345.389C279.337 346.227 283.009 344.342 284.583 343.294C285.003 341.199 294.899 339.279 299.795 338.58L300.844 333.866L277.764 332.295C277.764 329.361 276.365 326.533 275.665 325.485C279.023 322.971 275.316 315.708 273.043 312.391C273.882 309.038 265.699 300.518 261.502 296.677C259.404 293.325 255.732 289.693 254.158 288.296C251.536 288.122 245.451 286.83 242.093 283.058C238.736 279.287 232.302 279.043 229.504 279.392ZM227.406 313.962C225.727 313.543 221.81 300.518 220.062 294.058C220.062 294.274 219.178 296.358 218.13 298.828L218.129 298.83C217.146 301.148 216.018 303.807 215.341 305.581C216.491 307.495 215.12 311.925 214.298 314.581C213.995 315.56 213.767 316.299 213.767 316.581C213.767 316.853 213.132 318.146 212.265 319.912C209.787 324.958 205.413 333.866 208.521 333.866C211.879 333.866 218.663 335.263 221.636 335.961C227.091 335.542 233.351 333.342 235.799 332.295C233.7 326.358 229.084 314.381 227.406 313.962ZM259.929 344.866C257.83 346.123 254.858 345.739 253.634 345.389C254.893 347.485 254.158 351.151 253.634 352.723C255.312 354.818 255.382 358.135 255.207 359.532C256.257 360.056 258.46 361.313 258.879 362.151C259.299 362.989 260.103 361.452 260.453 360.579C260.033 359.741 260.278 357.786 260.453 356.913C262.551 354.399 263.775 347.834 264.125 344.866C263.6 344.342 262.027 343.609 259.929 344.866ZM191.211 308.724C192.89 306.629 201.702 301.216 205.899 298.772C206.318 301.705 203.975 306.978 202.751 309.248C202.402 311.343 201.387 315.638 200.128 316.057C198.87 316.476 198.905 320.422 199.079 322.343C196.561 325.695 195.932 331.422 195.932 333.866C195.512 334.285 190.512 333.342 188.064 332.818C187.014 333.342 176.523 335.961 178.097 333.342C179.671 330.723 180.195 328.628 179.671 328.628C179.251 328.628 180.895 325.136 181.769 323.39C180.93 322.552 182.468 320.946 183.343 320.247C182.084 318.152 185.616 314.486 187.539 312.914C188.064 312.391 189.532 310.819 191.211 308.724ZM178.097 349.056C180.195 348.881 184.601 348.427 185.441 348.008C186.49 348.183 189.008 348.427 190.686 348.008C189.288 349.929 186.595 354.084 187.014 355.341C185.79 357.437 183.657 361.941 184.916 363.198C184.406 364.387 183.598 366.831 184.326 367.35C182.56 366.287 179.256 364.136 179.671 363.722C180.09 363.303 179.146 359.357 178.621 357.437C178.447 356.04 178.202 353.142 178.621 352.723C178.097 351.675 177.258 349.475 178.097 349.056ZM235.799 297.724C239.82 300.343 247.969 305.581 248.388 305.581C248.913 305.581 259.929 315.533 262.551 323.914C263.6 324.438 265.699 326.847 265.699 332.295C265.324 332.295 264.814 332.334 264.263 332.377C263.016 332.473 261.56 332.585 260.978 332.295C260.138 331.876 252.235 332.818 248.388 333.342C247.339 329.676 244.506 321.504 241.569 318.152C241.919 317.628 242.093 315.743 239.995 312.391C237.372 308.2 233.176 299.296 235.799 297.724ZM205.374 346.437C208.172 346.262 213.977 346.227 214.816 347.485C216.215 346.786 219.537 345.808 221.636 347.485C223.734 349.161 234.05 347.485 238.946 346.437C239.296 348.532 240.205 352.618 241.044 352.199C240.52 352.723 240.625 355.865 245.241 364.246C245.416 366.865 246.185 372.103 247.864 372.103C249.542 372.103 248.213 374.198 247.339 375.246C246.29 376.468 243.352 379.122 239.995 379.96C235.799 381.007 230.029 382.579 227.93 383.626C226.252 384.464 218.488 383.277 214.816 382.579L214.292 383.626C212.194 381.88 207.472 378.703 205.374 379.96C203.451 378.214 199.394 375.036 198.555 376.293C197.506 377.865 195.408 371.579 196.457 372.103C197.296 372.522 197.855 365.294 198.03 361.627C200.128 357.786 204.325 349.999 204.325 349.58C204.325 349.498 204.312 349.378 204.297 349.232C204.212 348.44 204.046 346.879 205.374 346.437Z" fill="#FF385C"/>
</svg>
